;FLAVOR:Marlin
;TIME:3151
;Filament used: 4.6282m
;Layer height: 0.32
;MINX:65.515
;MINY:65.507
;MINZ:0.32
;MAXX:169.493
;MAXY:169.485
;MAXZ:100.16
;Generated with Cura_SteamEngine 4.13.1
M140 S50
M105
M190 S50
M104 S200
M105
M109 S200
M82 ;absolute extrusion mode
; Ender 3 Custom Start G-code
G92 E0 ; Reset Extruder
G28 ; Home all axes
G1 Z2.0 F3000 ; Move Z Axis up little to prevent scratching of Heat Bed
G1 X0.1 Y20 Z0.3 F5000.0 ; Move to start position
G1 X0.1 Y200.0 Z0.3 F1500.0 E15 ; Draw the first line
G1 X0.4 Y200.0 Z0.3 F5000.0 ; Move to side a little
G1 X0.4 Y20 Z0.3 F1500.0 E30 ; Draw the second line
G92 E0 ; Reset Extruder
G1 Z2.0 F3000 ; Move Z Axis up little to prevent scratching of Heat Bed
G1 X5 Y20 Z0.3 F5000.0 ; Move over to prevent blob squish
G92 E0
G92 E0
G1 F2700 E-5
;LAYER_COUNT:313
;LAYER:0
M107
G0 F6000 X80.744 Y80.738 Z0.32
;TYPE:SKIRT
G1 F2700 E0
G1 F1200 X81.49 Y80.013 E0.11072
G1 X81.648 Y79.862 E0.13398
G1 X82.502 Y79.064 E0.25838
G1 X82.895 Y78.706 E0.31496
G1 X83.191 Y78.445 E0.35696
G1 X84.059 Y77.705 E0.47836
G1 X84.238 Y77.556 E0.50315
G1 X85.129 Y76.826 E0.62574
G1 X85.531 Y76.506 E0.68043
G1 X85.833 Y76.274 E0.72096
G1 X86.725 Y75.609 E0.83938
G1 X86.909 Y75.474 E0.86367
G1 X87.702 Y74.906 E0.96749
G1 X88.255 Y74.521 E1.0392
G1 X88.575 Y74.306 E1.08023
G1 X89.539 Y73.681 E1.20251
G1 X89.731 Y73.559 E1.22672
G1 X90.54 Y73.056 E1.32811
G1 X91.162 Y72.681 E1.40542
G1 X91.48 Y72.496 E1.44457
G1 X92.425 Y71.967 E1.55984
G1 X93.558 Y71.359 E1.69669
G1 X94.073 Y71.091 E1.75848
G1 X94.429 Y70.915 E1.80075
G1 X95.542 Y70.386 E1.93191
G1 X95.744 Y70.292 E1.95562
G1 X96.768 Y69.83 E2.07519
G1 X97.202 Y69.641 E2.12557
G1 X97.561 Y69.491 E2.16698
G1 X98.633 Y69.065 E2.28975
G1 X99.747 Y68.644 E2.4165
G1 X100.355 Y68.423 E2.48536
G1 X100.74 Y68.291 E2.52867
G1 X101.838 Y67.936 E2.65149
G1 X103.017 Y67.576 E2.7827
G1 X103.614 Y67.403 E2.84885
G1 X103.975 Y67.305 E2.88866
G1 X105.1 Y67.02 E3.01218
G1 X105.332 Y66.964 E3.03758
G1 X106.444 Y66.707 E3.15906
G1 X106.938 Y66.599 E3.21288
G1 X107.32 Y66.522 E3.25435
G1 X108.402 Y66.322 E3.37146
G1 X108.63 Y66.282 E3.3961
G1 X109.782 Y66.093 E3.52035
G1 X110.258 Y66.021 E3.57159
G1 X110.653 Y65.968 E3.614
G1 X111.811 Y65.832 E3.7381
G1 X112.042 Y65.807 E3.76283
G1 X113.19 Y65.696 E3.88558
G1 X113.651 Y65.657 E3.93482
G1 X114.054 Y65.629 E3.97782
G1 X115.195 Y65.571 E4.09942
G1 X116.52 Y65.526 E4.24052
G1 X117.229 Y65.51 E4.316
G1 X117.552 Y65.507 E4.35038
G1 X117.783 Y65.508 E4.37496
G1 X118.126 Y65.514 E4.41148
G1 X119.827 Y65.57 E4.59262
G1 X120.439 Y65.598 E4.65782
G1 X120.84 Y65.623 E4.70058
G1 X122.199 Y65.732 E4.84569
G1 X123.217 Y65.832 E4.95456
G1 X123.841 Y65.903 E5.0214
G1 X124.196 Y65.949 E5.0595
G1 X125.386 Y66.122 E5.18749
G1 X125.617 Y66.158 E5.21237
G1 X126.744 Y66.345 E5.33396
G1 X127.235 Y66.434 E5.38707
G1 X127.595 Y66.505 E5.42612
G1 X128.689 Y66.738 E5.54517
G1 X129.895 Y67.018 E5.67694
G1 X130.52 Y67.171 E5.74543
G1 X130.902 Y67.273 E5.78751
G1 X132.011 Y67.587 E5.91018
G1 X132.22 Y67.648 E5.93336
G1 X133.335 Y67.987 E6.05739
G1 X133.812 Y68.14 E6.11071
G1 X134.161 Y68.258 E6.14992
G1 X135.243 Y68.642 E6.27211
G1 X136.373 Y69.066 E6.40057
G1 X136.979 Y69.303 E6.46983
G1 X137.334 Y69.449 E6.51068
G1 X138.423 Y69.918 E6.63688
G1 X138.622 Y70.006 E6.66004
G1 X139.651 Y70.472 E6.78026
G1 X140.083 Y70.675 E6.83106
G1 X140.441 Y70.851 E6.87352
G1 X141.474 Y71.379 E6.997
G1 X142.525 Y71.938 E7.1237
G1 X143.108 Y72.258 E7.19448
G1 X143.462 Y72.462 E7.23796
G1 X144.446 Y73.05 E7.35997
G1 X144.631 Y73.163 E7.38304
G1 X145.57 Y73.747 E7.50073
G1 X145.962 Y73.997 E7.55022
G1 X146.323 Y74.237 E7.59635
G1 X147.329 Y74.931 E7.72643
G1 X148.284 Y75.613 E7.85133
G1 X148.794 Y75.988 E7.91871
G1 X149.098 Y76.221 E7.95947
G1 X150.013 Y76.944 E8.08359
G1 X150.927 Y77.691 E8.20923
G1 X151.438 Y78.121 E8.28031
G1 X151.729 Y78.375 E8.32142
G1 X152.599 Y79.16 E8.44614
G1 X152.763 Y79.311 E8.46986
G1 X153.567 Y80.066 E8.58725
G1 X153.984 Y80.468 E8.6489
G1 X154.262 Y80.744 E8.69059
G1 X154.987 Y81.49 E8.80131
G1 X155.138 Y81.648 E8.82457
G1 X155.936 Y82.502 E8.94897
G1 X156.294 Y82.895 E9.00555
G1 X156.555 Y83.191 E9.04755
G1 X157.295 Y84.059 E9.16895
G1 X157.441 Y84.233 E9.19313
G1 X158.039 Y84.962 E9.29348
G1 X158.492 Y85.53 E9.37081
G1 X158.726 Y85.833 E9.41155
G1 X159.391 Y86.725 E9.52997
G1 X159.526 Y86.909 E9.55426
G1 X160.094 Y87.702 E9.65808
G1 X160.479 Y88.255 E9.72979
G1 X160.694 Y88.575 E9.77082
G1 X161.319 Y89.539 E9.8931
G1 X161.441 Y89.731 E9.91731
G1 X161.944 Y90.54 E10.0187
G1 X162.319 Y91.162 E10.09601
G1 X162.504 Y91.48 E10.13516
G1 X163.033 Y92.425 E10.25043
G1 X163.641 Y93.558 E10.38728
G1 X163.909 Y94.073 E10.44907
G1 X164.085 Y94.429 E10.49134
G1 X164.614 Y95.542 E10.6225
G1 X164.709 Y95.746 E10.64645
G1 X165.166 Y96.758 E10.76463
G1 X165.357 Y97.196 E10.81549
G1 X165.509 Y97.561 E10.85757
G1 X165.935 Y98.633 E10.98034
G1 X166.356 Y99.747 E11.10709
G1 X166.574 Y100.346 E11.17494
G1 X166.71 Y100.742 E11.2195
G1 X167.065 Y101.841 E11.34242
G1 X167.424 Y103.017 E11.47329
G1 X167.595 Y103.606 E11.53857
G1 X167.695 Y103.977 E11.57946
G1 X167.98 Y105.103 E11.70308
G1 X168.036 Y105.332 E11.72817
G1 X168.293 Y106.444 E11.84965
G1 X168.401 Y106.938 E11.90347
G1 X168.478 Y107.32 E11.94494
G1 X168.678 Y108.402 E12.06205
G1 X168.718 Y108.63 E12.08669
G1 X168.906 Y109.775 E12.21019
G1 X168.978 Y110.249 E12.26121
G1 X169.032 Y110.654 E12.3047
G1 X169.168 Y111.814 E12.42901
G1 X169.193 Y112.042 E12.45342
G1 X169.304 Y113.188 E12.57596
G1 X169.343 Y113.648 E12.6251
G1 X169.371 Y114.053 E12.6683
G1 X169.429 Y115.195 E12.79001
G1 X169.474 Y116.518 E12.9309
G1 X169.49 Y117.222 E13.00585
G1 X169.493 Y117.545 E13.04023
G1 X169.492 Y117.785 E13.06577
G1 X169.485 Y118.131 E13.1026
G1 X169.423 Y119.98 E13.29951
G1 X169.402 Y120.439 E13.34841
G1 X169.377 Y120.84 E13.39117
G1 X169.268 Y122.199 E13.53628
G1 X169.168 Y123.217 E13.64515
G1 X169.097 Y123.841 E13.71199
G1 X169.051 Y124.196 E13.75009
G1 X168.878 Y125.386 E13.87808
G1 X168.842 Y125.617 E13.90296
G1 X168.655 Y126.744 E14.02455
G1 X168.566 Y127.235 E14.07766
G1 X168.495 Y127.595 E14.11671
G1 X168.262 Y128.689 E14.23576
G1 X168.212 Y128.913 E14.26019
G1 X167.995 Y129.844 E14.36193
G1 X167.829 Y130.517 E14.43571
G1 X167.727 Y130.902 E14.4781
G1 X167.351 Y132.225 E14.62449
G1 X167.072 Y133.145 E14.72681
G1 X166.863 Y133.8 E14.79998
G1 X166.742 Y134.161 E14.84051
G1 X166.358 Y135.243 E14.9627
G1 X165.934 Y136.373 E15.09116
G1 X165.697 Y136.979 E15.16041
G1 X165.551 Y137.334 E15.20127
G1 X165.082 Y138.423 E15.32747
G1 X164.994 Y138.622 E15.35062
G1 X164.54 Y139.623 E15.46761
G1 X164.328 Y140.075 E15.52074
G1 X164.149 Y140.441 E15.56411
G1 X163.621 Y141.474 E15.68758
G1 X163.524 Y141.66 E15.70991
G1 X162.991 Y142.656 E15.83014
G1 X162.748 Y143.097 E15.88373
G1 X162.537 Y143.465 E15.92888
G1 X161.844 Y144.621 E16.07233
G1 X161.271 Y145.541 E16.18769
G1 X161.001 Y145.964 E16.2411
G1 X160.762 Y146.324 E16.28709
G1 X160.067 Y147.331 E16.41731
G1 X159.942 Y147.509 E16.44046
G1 X159.293 Y148.412 E16.55882
G1 X159.024 Y148.777 E16.60708
G1 X158.779 Y149.098 E16.65006
G1 X158.056 Y150.013 E16.77417
G1 X157.309 Y150.927 E16.89981
G1 X156.879 Y151.438 E16.97089
G1 X156.625 Y151.729 E17.012
G1 X155.84 Y152.599 E17.13672
G1 X155.69 Y152.762 E17.1603
G1 X154.936 Y153.566 E17.27761
G1 X154.531 Y153.986 E17.33971
G1 X154.256 Y154.262 E17.38118
G1 X153.51 Y154.987 E17.49189
G1 X153.352 Y155.138 E17.51516
G1 X152.498 Y155.936 E17.63955
G1 X152.105 Y156.294 E17.69614
G1 X151.809 Y156.555 E17.73814
G1 X150.941 Y157.295 E17.85954
G1 X150.767 Y157.441 E17.88371
G1 X150.038 Y158.039 E17.98407
G1 X149.47 Y158.492 E18.06139
G1 X149.167 Y158.726 E18.10214
G1 X148.275 Y159.391 E18.22056
G1 X148.091 Y159.526 E18.24484
G1 X147.298 Y160.094 E18.34866
G1 X146.745 Y160.479 E18.42038
G1 X146.425 Y160.694 E18.46141
G1 X145.461 Y161.319 E18.58369
G1 X145.269 Y161.441 E18.6079
G1 X144.46 Y161.944 E18.70929
G1 X143.838 Y162.319 E18.78659
G1 X143.52 Y162.504 E18.82575
G1 X142.575 Y163.033 E18.94101
G1 X141.442 Y163.641 E19.07787
G1 X140.927 Y163.909 E19.13966
G1 X140.571 Y164.085 E19.18192
G1 X139.458 Y164.614 E19.31308
G1 X139.256 Y164.708 E19.3368
G1 X138.258 Y165.158 E19.45331
G1 X137.804 Y165.356 E19.50603
G1 X137.439 Y165.509 E19.54815
G1 X136.367 Y165.935 E19.67093
G1 X135.253 Y166.356 E19.79768
G1 X134.645 Y166.577 E19.86653
G1 X134.26 Y166.709 E19.90985
G1 X133.162 Y167.064 E20.03267
G1 X131.996 Y167.42 E20.16242
G1 X131.392 Y167.595 E20.22935
G1 X131.025 Y167.695 E20.26984
G1 X129.9 Y167.98 E20.39336
G1 X129.668 Y168.036 E20.41876
G1 X128.556 Y168.293 E20.54023
G1 X128.062 Y168.401 E20.59405
G1 X127.68 Y168.478 E20.63552
G1 X126.598 Y168.678 E20.75264
G1 X126.37 Y168.718 E20.77727
G1 X125.218 Y168.907 E20.90152
G1 X124.742 Y168.979 E20.95276
G1 X124.347 Y169.032 E20.99518
G1 X123.189 Y169.168 E21.11927
G1 X122.958 Y169.193 E21.144
G1 X121.81 Y169.304 E21.26676
G1 X121.349 Y169.343 E21.316
G1 X120.946 Y169.371 E21.35899
G1 X119.805 Y169.429 E21.48059
G1 X118.574 Y169.471 E21.61168
G1 X117.962 Y169.484 E21.67684
G1 X117.568 Y169.485 E21.71877
G1 X116.391 Y169.468 E21.84405
G1 X115.171 Y169.429 E21.97397
G1 X114.561 Y169.402 E22.03896
G1 X114.16 Y169.377 E22.08172
G1 X112.801 Y169.268 E22.22682
G1 X111.783 Y169.168 E22.33569
G1 X111.159 Y169.097 E22.40254
G1 X110.804 Y169.051 E22.44064
G1 X109.614 Y168.878 E22.56862
G1 X109.383 Y168.842 E22.5935
G1 X108.256 Y168.655 E22.71509
G1 X107.765 Y168.566 E22.7682
G1 X107.405 Y168.495 E22.80726
G1 X106.311 Y168.262 E22.92631
G1 X105.105 Y167.982 E23.05808
G1 X104.48 Y167.829 E23.12656
G1 X104.098 Y167.727 E23.16864
G1 X102.989 Y167.413 E23.29132
G1 X102.78 Y167.352 E23.31449
G1 X101.665 Y167.013 E23.43852
G1 X101.188 Y166.86 E23.49184
G1 X100.839 Y166.742 E23.53105
G1 X99.757 Y166.358 E23.65325
G1 X98.627 Y165.934 E23.78171
G1 X98.021 Y165.697 E23.85096
G1 X97.666 Y165.551 E23.89181
G1 X96.577 Y165.082 E24.01801
G1 X96.378 Y164.994 E24.04117
G1 X95.349 Y164.528 E24.1614
G1 X94.917 Y164.325 E24.2122
G1 X94.559 Y164.149 E24.25466
G1 X93.526 Y163.621 E24.37813
G1 X92.475 Y163.062 E24.50483
G1 X91.892 Y162.742 E24.57561
G1 X91.538 Y162.538 E24.6191
G1 X90.554 Y161.95 E24.7411
G1 X90.369 Y161.837 E24.76417
G1 X89.43 Y161.253 E24.88187
G1 X89.038 Y161.003 E24.93135
G1 X88.677 Y160.763 E24.97749
G1 X87.671 Y160.069 E25.10756
G1 X86.716 Y159.387 E25.23247
G1 X86.206 Y159.012 E25.29984
G1 X85.902 Y158.779 E25.34061
G1 X84.987 Y158.056 E25.46472
G1 X84.073 Y157.309 E25.59036
G1 X83.929 Y157.19 E25.61024
G1 X83.559 Y156.877 E25.66182
G1 X83.271 Y156.625 E25.70255
G1 X82.402 Y155.841 E25.82712
G1 X82.234 Y155.687 E25.85138
G1 X81.429 Y154.931 E25.96891
G1 X81.016 Y154.533 E26.02996
G1 X80.737 Y154.255 E26.07188
G1 X80.013 Y153.51 E26.18245
G1 X79.862 Y153.352 E26.20571
G1 X79.065 Y152.499 E26.32996
G1 X78.706 Y152.105 E26.38669
G1 X78.443 Y151.807 E26.42899
G1 X77.704 Y150.94 E26.55024
G1 X77.56 Y150.768 E26.57411
G1 X76.961 Y150.038 E26.67462
G1 X76.507 Y149.469 E26.75209
G1 X76.272 Y149.165 E26.79299
G1 X75.608 Y148.274 E26.91126
G1 X75.474 Y148.091 E26.9354
G1 X74.811 Y147.163 E27.05678
G1 X74.523 Y146.749 E27.11046
G1 X74.303 Y146.422 E27.15241
G1 X73.679 Y145.459 E27.27454
G1 X73.056 Y144.46 E27.39985
G1 X72.681 Y143.838 E27.47715
G1 X72.496 Y143.52 E27.5163
G1 X71.967 Y142.575 E27.63157
G1 X71.359 Y141.442 E27.76842
G1 X71.091 Y140.927 E27.83021
G1 X70.915 Y140.571 E27.87248
G1 X70.386 Y139.458 E28.00364
G1 X70.291 Y139.254 E28.02759
G1 X69.901 Y138.392 E28.12829
G1 X69.644 Y137.804 E28.19659
G1 X69.49 Y137.435 E28.23914
G1 X69.065 Y136.365 E28.36168
G1 X68.988 Y136.166 E28.38439
G1 X68.587 Y135.099 E28.50571
G1 X68.423 Y134.645 E28.55709
G1 X68.291 Y134.26 E28.6004
G1 X67.936 Y133.162 E28.72322
G1 X67.576 Y131.983 E28.85443
G1 X67.403 Y131.386 E28.92058
G1 X67.305 Y131.025 E28.96039
G1 X67.02 Y129.9 E29.08391
G1 X66.964 Y129.668 E29.10931
G1 X66.707 Y128.556 E29.23079
G1 X66.599 Y128.062 E29.28461
G1 X66.522 Y127.68 E29.32608
G1 X66.322 Y126.598 E29.44319
G1 X66.281 Y126.365 E29.46837
G1 X66.091 Y125.201 E29.5939
G1 X66.022 Y124.746 E29.64288
G1 X65.968 Y124.347 E29.68573
G1 X65.832 Y123.189 E29.80983
G1 X65.807 Y122.956 E29.83477
G1 X65.695 Y121.798 E29.95859
G1 X65.657 Y121.349 E30.00655
G1 X65.629 Y120.946 E30.04955
G1 X65.571 Y119.805 E30.17114
G1 X65.562 Y119.59 E30.19405
G1 X65.527 Y118.524 E30.30756
G1 X65.516 Y117.958 E30.36782
G1 X65.515 Y117.569 E30.40922
G1 X65.532 Y116.391 E30.53461
G1 X65.571 Y115.171 E30.66452
G1 X65.598 Y114.561 E30.72951
G1 X65.623 Y114.16 E30.77227
G1 X65.732 Y112.801 E30.91738
G1 X65.832 Y111.783 E31.02625
G1 X65.903 Y111.159 E31.09309
G1 X65.949 Y110.804 E31.13119
G1 X66.122 Y109.614 E31.25918
G1 X66.158 Y109.383 E31.28406
G1 X66.345 Y108.256 E31.40565
G1 X66.434 Y107.765 E31.45876
G1 X66.505 Y107.405 E31.49781
G1 X66.738 Y106.311 E31.61686
G1 X67.018 Y105.105 E31.74863
G1 X67.171 Y104.48 E31.81712
G1 X67.273 Y104.098 E31.8592
G1 X67.587 Y102.989 E31.98187
G1 X67.648 Y102.78 E32.00505
G1 X67.987 Y101.665 E32.12908
G1 X68.14 Y101.188 E32.1824
G1 X68.258 Y100.839 E32.22161
G1 X68.642 Y99.757 E32.3438
G1 X69.066 Y98.627 E32.47226
G1 X69.303 Y98.021 E32.54152
G1 X69.449 Y97.666 E32.58237
G1 X69.918 Y96.577 E32.70857
G1 X70.006 Y96.378 E32.73173
G1 X70.472 Y95.349 E32.85195
G1 X70.675 Y94.917 E32.90275
G1 X70.851 Y94.559 E32.94521
G1 X71.379 Y93.526 E33.06869
G1 X71.477 Y93.338 E33.09125
G1 X72.022 Y92.319 E33.21424
G1 X72.253 Y91.9 E33.26517
G1 X72.463 Y91.535 E33.30999
G1 X73.052 Y90.55 E33.43213
G1 X73.743 Y89.437 E33.57157
G1 X73.992 Y89.046 E33.6209
G1 X74.238 Y88.676 E33.66819
G1 X75.053 Y87.498 E33.82065
G1 X75.721 Y86.567 E33.94261
G1 X75.988 Y86.206 E33.9904
G1 X76.221 Y85.902 E34.03116
G1 X76.944 Y84.987 E34.15528
G1 X77.691 Y84.073 E34.28092
G1 X78.121 Y83.562 E34.352
G1 X78.375 Y83.271 E34.39311
G1 X79.16 Y82.401 E34.51783
G1 X79.315 Y82.232 E34.54223
G1 X80.091 Y81.406 E34.66286
G1 X80.468 Y81.015 E34.72067
G1 X80.744 Y80.738 E34.76228
G0 F6000 X81.301 Y81.312
G1 F1200 X82.047 Y80.587 E34.873
G1 X82.925 Y79.762 E35.00123
G1 X83.434 Y79.297 E35.07461
G1 X83.71 Y79.054 E35.11375
G1 X84.578 Y78.314 E35.23515
G1 X84.745 Y78.174 E35.25834
G1 X85.628 Y77.452 E35.37974
G1 X86.03 Y77.132 E35.43442
G1 X86.311 Y76.916 E35.47214
G1 X87.203 Y76.251 E35.59056
G1 X87.375 Y76.125 E35.61325
G1 X88.299 Y75.465 E35.73411
G1 X88.712 Y75.178 E35.78764
G1 X89.01 Y74.977 E35.82589
G1 X89.974 Y74.352 E35.94817
G1 X90.962 Y73.736 E36.07209
G1 X91.574 Y73.367 E36.14815
G1 X91.871 Y73.194 E36.18473
G1 X92.816 Y72.665 E36.3
G1 X93.004 Y72.562 E36.32282
G1 X94.078 Y71.989 E36.45238
G1 X94.44 Y71.802 E36.49574
G1 X94.772 Y71.637 E36.5352
G1 X95.885 Y71.108 E36.66636
G1 X96.94 Y70.629 E36.78968
G1 X97.521 Y70.374 E36.85721
G1 X97.857 Y70.235 E36.89591
G1 X99.116 Y69.736 E37.04005
G1 X100.173 Y69.339 E37.16022
G1 X100.627 Y69.175 E37.2116
G1 X100.986 Y69.052 E37.25199
G1 X102.084 Y68.697 E37.3748
G1 X102.272 Y68.638 E37.39578
G1 X103.249 Y68.341 E37.50446
G1 X103.835 Y68.172 E37.56937
G1 X104.172 Y68.081 E37.60652
G1 X105.513 Y67.743 E37.75371
G1 X106.615 Y67.488 E37.8741
G1 X107.109 Y67.38 E37.92792
G1 X107.465 Y67.309 E37.96656
G1 X108.76 Y67.071 E38.10669
G1 X109.902 Y66.884 E38.22986
G1 X110.378 Y66.812 E38.2811
G1 X110.747 Y66.762 E38.32073
G1 X111.905 Y66.626 E38.44483
G1 X112.12 Y66.603 E38.46784
G1 X113.258 Y66.493 E38.58952
G1 X113.719 Y66.454 E38.63876
G1 X114.094 Y66.428 E38.67877
G1 X115.235 Y66.37 E38.80037
G1 X116.417 Y66.329 E38.92625
G1 X117.247 Y66.31 E39.01461
G1 X117.548 Y66.307 E39.04665
G1 X117.779 Y66.308 E39.07123
G1 X118.1 Y66.314 E39.1054
G1 X119.944 Y66.376 E39.30178
G1 X120.403 Y66.397 E39.35068
G1 X120.776 Y66.42 E39.39045
G1 X121.911 Y66.51 E39.51163
G1 X123.139 Y66.629 E39.64295
G1 X123.324 Y66.648 E39.66274
G1 X123.75 Y66.697 E39.70838
G1 X124.081 Y66.741 E39.74392
G1 X125.271 Y66.914 E39.8719
G1 X125.486 Y66.947 E39.89505
G1 X126.602 Y67.133 E40.01547
G1 X127.093 Y67.222 E40.06858
G1 X127.428 Y67.288 E40.10492
