;FLAVOR:Marlin
;TIME:1056
;Filament used: 2.21741m
;Layer height: 0.32
;MINX:67.78
;MINY:67.785
;MINZ:0.32
;MAXX:167.215
;MAXY:167.22
;MAXZ:14.08
;Generated with Cura_SteamEngine 4.13.1
M140 S50
M105
M190 S50
M104 S200
M105
M109 S200
M82 ;absolute extrusion mode
; Ender 3 Custom Start G-code
G92 E0 ; Reset Extruder
G28 ; Home all axes
G1 Z2.0 F3000 ; Move Z Axis up little to prevent scratching of Heat Bed
G1 X0.1 Y20 Z0.3 F5000.0 ; Move to start position
G1 X0.1 Y200.0 Z0.3 F1500.0 E15 ; Draw the first line
G1 X0.4 Y200.0 Z0.3 F5000.0 ; Move to side a little
G1 X0.4 Y20 Z0.3 F1500.0 E30 ; Draw the second line
G92 E0 ; Reset Extruder
G1 Z2.0 F3000 ; Move Z Axis up little to prevent scratching of Heat Bed
G1 X5 Y20 Z0.3 F5000.0 ; Move over to prevent blob squish
G92 E0
G92 E0
G1 F2700 E-5
;LAYER_COUNT:44
;LAYER:0
M107
G0 F6000 X82.573 Y82.117 Z0.32
;TYPE:SKIRT
G1 F2700 E0
G1 F1200 X82.942 Y81.754 E0.05509
G1 X83.208 Y81.5 E0.09424
G1 X84.088 Y80.686 E0.22182
G1 X84.259 Y80.531 E0.24639
G1 X84.886 Y79.973 E0.33572
G1 X85.358 Y79.565 E0.40212
G1 X85.646 Y79.324 E0.44209
G1 X86.636 Y78.524 E0.57756
G1 X86.837 Y78.366 E0.60477
G1 X87.633 Y77.75 E0.7119
G1 X87.955 Y77.507 E0.75483
G1 X88.305 Y77.253 E0.80086
G1 X89.367 Y76.51 E0.93881
G1 X89.554 Y76.382 E0.96293
G1 X90.329 Y75.863 E1.0622
G1 X90.765 Y75.578 E1.11764
G1 X91.129 Y75.349 E1.16341
G1 X92.156 Y74.729 E1.29109
G1 X92.356 Y74.611 E1.31581
G1 X93.264 Y74.088 E1.42733
G1 X93.629 Y73.884 E1.47183
G1 X93.975 Y73.698 E1.51364
G1 X95.119 Y73.107 E1.65069
G1 X95.345 Y72.993 E1.67763
G1 X96.249 Y72.551 E1.78473
G1 X96.622 Y72.374 E1.82867
G1 X97.007 Y72.199 E1.87368
G1 X98.178 Y71.693 E2.00945
G1 X98.398 Y71.601 E2.03483
G1 X99.35 Y71.213 E2.14425
G1 X99.77 Y71.048 E2.19228
G1 X100.145 Y70.908 E2.23488
G1 X101.337 Y70.485 E2.3695
G1 X101.56 Y70.408 E2.39461
G1 X102.496 Y70.098 E2.49955
G1 X102.89 Y69.973 E2.54355
G1 X103.285 Y69.855 E2.58742
G1 X104.525 Y69.508 E2.72447
G1 X104.762 Y69.444 E2.7506
G1 X105.765 Y69.187 E2.8608
G1 X106.216 Y69.077 E2.91021
G1 X106.608 Y68.988 E2.95299
G1 X107.763 Y68.747 E3.07857
G1 X107.996 Y68.701 E3.10384
G1 X109.026 Y68.508 E3.21538
G1 X109.396 Y68.443 E3.25536
G1 X109.826 Y68.375 E3.30169
G1 X111.097 Y68.199 E3.43826
G1 X111.332 Y68.169 E3.46347
G1 X112.378 Y68.046 E3.57557
G1 X112.773 Y68.004 E3.61785
G1 X113.202 Y67.966 E3.66369
G1 X114.484 Y67.876 E3.80047
G1 X114.715 Y67.862 E3.8251
G1 X115.68 Y67.814 E3.92793
G1 X116.132 Y67.797 E3.97608
G1 X116.543 Y67.789 E4.01983
G1 X117.751 Y67.785 E4.1484
G1 X117.995 Y67.787 E4.17437
G1 X119.007 Y67.805 E4.2821
G1 X119.437 Y67.817 E4.32788
G1 X119.874 Y67.837 E4.37444
G1 X121.146 Y67.919 E4.5101
G1 X121.384 Y67.937 E4.53551
G1 X122.385 Y68.022 E4.64243
G1 X122.86 Y68.069 E4.69323
G1 X123.256 Y68.115 E4.73566
G1 X124.661 Y68.303 E4.88653
G1 X125.575 Y68.441 E4.98491
G1 X126.097 Y68.527 E5.04122
G1 X126.5 Y68.602 E5.08485
G1 X127.838 Y68.873 E5.23015
G1 X128.073 Y68.923 E5.25572
G1 X129.049 Y69.142 E5.36218
G1 X129.446 Y69.236 E5.4056
G1 X129.862 Y69.342 E5.45129
G1 X131.106 Y69.684 E5.58861
G1 X132.093 Y69.973 E5.69807
G1 X132.672 Y70.151 E5.76254
G1 X133.065 Y70.28 E5.80656
G1 X134.303 Y70.711 E5.94608
G1 X134.524 Y70.79 E5.97106
G1 X135.473 Y71.143 E6.07882
G1 X135.878 Y71.3 E6.12506
G1 X136.243 Y71.449 E6.16702
G1 X137.384 Y71.935 E6.29901
G1 X137.609 Y72.033 E6.32513
G1 X138.563 Y72.464 E6.43655
G1 X138.928 Y72.634 E6.4794
G1 X139.302 Y72.816 E6.52367
G1 X140.413 Y73.381 E6.65633
G1 X140.604 Y73.48 E6.67923
G1 X141.549 Y73.984 E6.79322
G1 X141.943 Y74.202 E6.84114
G1 X142.28 Y74.396 E6.88253
G1 X143.348 Y75.033 E7.01488
G1 X143.542 Y75.151 E7.03905
G1 X144.38 Y75.674 E7.14419
G1 X145.003 Y76.073 E7.22293
G1 X145.284 Y76.259 E7.25879
G1 X145.472 Y76.387 E7.283
G1 X145.725 Y76.564 E7.31586
G1 X147.176 Y77.609 E7.50618
G1 X147.556 Y77.892 E7.55661
G1 X147.857 Y78.124 E7.59705
G1 X148.785 Y78.862 E7.72325
G1 X148.975 Y79.016 E7.74928
G1 X149.836 Y79.731 E7.86839
G1 X150.093 Y79.95 E7.90433
G1 X150.401 Y80.222 E7.94807
G1 X151.389 Y81.124 E8.09045
G1 X151.567 Y81.289 E8.11629
G1 X152.265 Y81.955 E8.21897
G1 X152.61 Y82.293 E8.27037
G1 X152.887 Y82.574 E8.31237
G1 X153.752 Y83.479 E8.44561
G1 X153.912 Y83.649 E8.47046
G1 X154.567 Y84.363 E8.57358
G1 X154.898 Y84.733 E8.62642
G1 X155.166 Y85.044 E8.67012
G1 X155.944 Y85.976 E8.79933
G1 X156.091 Y86.155 E8.82398
G1 X156.652 Y86.854 E8.91938
G1 X157.179 Y87.53 E9.0106
G1 X157.375 Y87.788 E9.04509
G1 X157.62 Y88.123 E9.08926
G1 X157.809 Y88.388 E9.1239
G1 X158.718 Y89.695 E9.29335
G1 X158.949 Y90.037 E9.33727
G1 X159.167 Y90.371 E9.37972
G1 X159.851 Y91.46 E9.51659
G1 X160.431 Y92.422 E9.63615
G1 X160.711 Y92.9 E9.69511
G1 X160.907 Y93.252 E9.73799
G1 X161.509 Y94.373 E9.87342
G1 X161.618 Y94.581 E9.89841
G1 X162.068 Y95.462 E10.0037
G1 X162.276 Y95.881 E10.05349
G1 X162.464 Y96.278 E10.10024
G1 X163.064 Y97.61 E10.25573
G1 X163.462 Y98.539 E10.3633
G1 X163.631 Y98.948 E10.4104
G1 X163.782 Y99.334 E10.45451
G1 X164.23 Y100.534 E10.59084
G1 X164.593 Y101.559 E10.70657
G1 X164.66 Y101.753 E10.72842
G1 X164.785 Y102.128 E10.77049
G1 X164.898 Y102.486 E10.81045
G1 X165.266 Y103.717 E10.94719
G1 X165.334 Y103.952 E10.97323
G1 X165.598 Y104.909 E11.07889
G1 X165.712 Y105.345 E11.12686
G1 X165.805 Y105.728 E11.1688
G1 X166.089 Y106.981 E11.30555
G1 X166.137 Y107.203 E11.32972
G1 X166.339 Y108.185 E11.43643
G1 X166.419 Y108.601 E11.48151
G1 X166.491 Y109.014 E11.52613
G1 X166.686 Y110.262 E11.66057
G1 X166.722 Y110.507 E11.68693
G1 X166.862 Y111.553 E11.79925
G1 X166.906 Y111.911 E11.83764
G1 X166.95 Y112.327 E11.88216
G1 X167.062 Y113.605 E12.0187
G1 X167.08 Y113.836 E12.04336
G1 X167.15 Y114.886 E12.15537
G1 X167.171 Y115.284 E12.19778
G1 X167.186 Y115.674 E12.23932
G1 X167.212 Y116.964 E12.37665
G1 X167.215 Y118.07 E12.49436
G1 X167.209 Y118.616 E12.55248
G1 X167.196 Y119.027 E12.59625
G1 X167.133 Y120.342 E12.73636
G1 X167.12 Y120.572 E12.76088
G1 X167.055 Y121.525 E12.86255
G1 X167.015 Y122.019 E12.9153
G1 X166.974 Y122.435 E12.95979
G1 X166.834 Y123.641 E13.08901
G1 X166.684 Y124.761 E13.20928
G1 X166.605 Y125.303 E13.26757
G1 X166.536 Y125.712 E13.31172
G1 X166.303 Y126.973 E13.4482
G1 X166.259 Y127.199 E13.47271
G1 X166.052 Y128.207 E13.58223
G1 X165.964 Y128.611 E13.62624
G1 X165.864 Y129.035 E13.6726
G1 X165.562 Y130.214 E13.80214
G1 X165.257 Y131.323 E13.92455
G1 X165.098 Y131.871 E13.98528
G1 X164.981 Y132.249 E14.0274
G1 X164.584 Y133.457 E14.16273
G1 X164.508 Y133.682 E14.18801
G1 X164.183 Y134.606 E14.29226
G1 X164.028 Y135.031 E14.34041
G1 X163.88 Y135.416 E14.38431
G1 X163.416 Y136.564 E14.5161
G1 X162.994 Y137.553 E14.63054
G1 X162.727 Y138.155 E14.70063
G1 X162.562 Y138.51 E14.7423
G1 X162.007 Y139.652 E14.87744
G1 X161.905 Y139.858 E14.9019
G1 X161.475 Y140.699 E15.00243
G1 X161.258 Y141.112 E15.05209
G1 X161.041 Y141.507 E15.10005
G1 X160.404 Y142.616 E15.23617
G1 X160.288 Y142.813 E15.26051
G1 X159.82 Y143.593 E15.35732
G1 X159.507 Y144.098 E15.42055
G1 X159.297 Y144.426 E15.46201
G1 X158.601 Y145.469 E15.59546
G1 X157.987 Y146.355 E15.71019
G1 X157.621 Y146.867 E15.77718
G1 X157.38 Y147.191 E15.82015
G1 X156.482 Y148.355 E15.97662
G1 X155.818 Y149.181 E16.08942
G1 X155.551 Y149.505 E16.13411
G1 X155.283 Y149.819 E16.17804
G1 X154.479 Y150.729 E16.30728
G1 X154.312 Y150.914 E16.33381
G1 X153.595 Y151.692 E16.44641
G1 X153.309 Y151.996 E16.49084
G1 X153.002 Y152.31 E16.53758
G1 X152.177 Y153.125 E16.661
G1 X152.018 Y153.279 E16.68456
G1 X151.273 Y153.988 E16.79402
G1 X150.942 Y154.296 E16.84215
G1 X150.604 Y154.598 E16.89039
G1 X149.688 Y155.388 E17.01913
G1 X149.524 Y155.527 E17.04201
G1 X148.715 Y156.199 E17.15394
G1 X148.394 Y156.459 E17.19791
G1 X148.053 Y156.725 E17.24394
G1 X147.037 Y157.489 E17.37924
G1 X146.848 Y157.628 E17.40421
G1 X145.957 Y158.27 E17.52109
G1 X145.649 Y158.485 E17.56107
G1 X145.334 Y158.697 E17.60148
G1 X144.225 Y159.42 E17.74238
G1 X144.017 Y159.553 E17.76866
G1 X143.282 Y160.011 E17.86083
G1 X142.779 Y160.315 E17.92339
G1 X142.455 Y160.503 E17.96325
G1 X141.387 Y161.101 E18.09353
G1 X141.17 Y161.22 E18.11987
G1 X140.231 Y161.719 E18.23305
G1 X139.848 Y161.916 E18.27889
G1 X139.499 Y162.089 E18.32034
G1 X138.385 Y162.617 E18.45155
G1 X138.166 Y162.718 E18.47722
G1 X137.303 Y163.106 E18.57793
G1 X136.797 Y163.325 E18.63661
G1 X136.446 Y163.47 E18.67703
G1 X135.298 Y163.922 E18.80835
G1 X135.065 Y164.011 E18.83489
G1 X134.098 Y164.368 E18.9446
G1 X133.717 Y164.504 E18.98766
G1 X133.301 Y164.644 E19.03437
G1 X132.055 Y165.038 E19.17346
G1 X131.842 Y165.103 E19.19716
G1 X130.877 Y165.387 E19.30423
G1 X130.454 Y165.505 E19.35097
G1 X130.07 Y165.605 E19.3932
G1 X128.826 Y165.908 E19.52947
G1 X128.597 Y165.962 E19.55451
G1 X127.641 Y166.174 E19.65874
G1 X127.187 Y166.269 E19.7081
G1 X126.782 Y166.346 E19.75198
G1 X125.567 Y166.557 E19.88323
G1 X125.34 Y166.594 E19.90771
G1 X124.354 Y166.745 E20.01388
G1 X123.868 Y166.812 E20.06609
G1 X123.482 Y166.858 E20.10746
G1 X121.952 Y167.017 E20.27118
G1 X120.964 Y167.099 E20.3767
G1 X120.536 Y167.129 E20.42236
G1 X120.144 Y167.15 E20.46415
G1 X118.883 Y167.197 E20.59845
G1 X118.636 Y167.203 E20.62475
G1 X117.622 Y167.219 E20.73268
G1 X117.156 Y167.22 E20.78228
G1 X116.767 Y167.215 E20.82369
G1 X115.545 Y167.178 E20.95381
G1 X115.294 Y167.167 E20.98055
G1 X114.26 Y167.113 E21.09075
G1 X113.84 Y167.086 E21.13554
G1 X113.437 Y167.054 E21.17857
G1 X112.164 Y166.929 E21.31471
G1 X111.912 Y166.901 E21.34169
G1 X110.92 Y166.782 E21.44803
G1 X110.494 Y166.726 E21.49376
G1 X110.077 Y166.663 E21.53865
G1 X108.888 Y166.464 E21.66696
G1 X108.657 Y166.423 E21.69193
G1 X107.615 Y166.227 E21.80477
G1 X107.24 Y166.152 E21.84548
G1 X106.805 Y166.057 E21.89287
G1 X105.528 Y165.752 E22.0326
G1 X105.294 Y165.693 E22.05829
G1 X104.254 Y165.421 E22.1727
G1 X103.894 Y165.322 E22.21244
G1 X103.518 Y165.212 E22.25414
G1 X102.08 Y164.764 E22.41444
G1 X101.134 Y164.449 E22.52056
G1 X100.731 Y164.308 E22.566
G1 X100.373 Y164.176 E22.60661
G1 X99.145 Y163.702 E22.74671
G1 X98.909 Y163.608 E22.77375
G1 X97.997 Y163.233 E22.8787
G1 X97.537 Y163.037 E22.93192
G1 X97.163 Y162.87 E22.97551
G1 X96.086 Y162.367 E23.10202
G1 X95.113 Y161.893 E23.21722
G1 X94.558 Y161.611 E23.28348
G1 X94.235 Y161.44 E23.32237
G1 X93.133 Y160.834 E23.45623
G1 X92.911 Y160.709 E23.48334
G1 X92.031 Y160.199 E23.5916
G1 X91.619 Y159.953 E23.64267
G1 X91.296 Y159.753 E23.6831
G1 X90.277 Y159.1 E23.81191
G1 X90.068 Y158.963 E23.83851
G1 X89.158 Y158.351 E23.95523
G1 X88.857 Y158.142 E23.99423
G1 X88.558 Y157.928 E24.03337
G1 X87.505 Y157.148 E24.17284
G1 X87.296 Y156.989 E24.20079
G1 X86.464 Y156.342 E24.31296
G1 X86.101 Y156.052 E24.36241
G1 X85.801 Y155.805 E24.40377
G1 X84.9 Y155.036 E24.52985
G1 X84.719 Y154.878 E24.55542
G1 X83.97 Y154.212 E24.66209
G1 X83.644 Y153.915 E24.70903
G1 X83.341 Y153.628 E24.75345
G1 X82.437 Y152.745 E24.88795
G1 X82.269 Y152.578 E24.91316
G1 X81.525 Y151.82 E25.0262
G1 X81.252 Y151.534 E25.06829
G1 X80.987 Y151.247 E25.10986
G1 X80.142 Y150.302 E25.24479
G1 X79.983 Y150.121 E25.27043
G1 X79.292 Y149.315 E25.38342
G1 X79.059 Y149.036 E25.42211
G1 X78.805 Y148.72 E25.46526
G1 X78.007 Y147.696 E25.60343
G1 X77.855 Y147.497 E25.63009
G1 X77.209 Y146.63 E25.74516
G1 X76.964 Y146.292 E25.78959
G1 X76.738 Y145.968 E25.83164
G1 X76.073 Y144.984 E25.95804
G1 X75.945 Y144.791 E25.98269
G1 X75.349 Y143.869 E26.09954
G1 X75.149 Y143.55 E26.13961
G1 X74.946 Y143.214 E26.18139
G1 X74.305 Y142.113 E26.31698
G1 X74.186 Y141.905 E26.34249
G1 X73.768 Y141.153 E26.43406
G1 X73.494 Y140.644 E26.49559
G1 X73.315 Y140.299 E26.53695
G1 X72.737 Y139.133 E26.67546
G1 X72.626 Y138.901 E26.70284
G1 X72.209 Y138.011 E26.80744
G1 X72.019 Y137.592 E26.85641
G1 X71.858 Y137.22 E26.89955
G1 X71.388 Y136.083 E27.0305
G1 X71.302 Y135.869 E27.05504
G1 X70.933 Y134.923 E27.16312
G1 X70.777 Y134.508 E27.2103
G1 X70.631 Y134.098 E27.25663
G1 X70.228 Y132.895 E27.39166
G1 X69.912 Y131.895 E27.50328
G1 X69.73 Y131.292 E27.57032
G1 X69.619 Y130.897 E27.61398
G1 X69.302 Y129.689 E27.74691
G1 X69.057 Y128.684 E27.85701
G1 X68.909 Y128.042 E27.92713
G1 X68.822 Y127.624 E27.97257
G1 X68.55 Y126.19 E28.12791
G1 X68.373 Y125.155 E28.23967
G1 X68.309 Y124.746 E28.28373
G1 X68.253 Y124.343 E28.32704
G1 X68.1 Y123.088 E28.4616
G1 X68.075 Y122.866 E28.48538
G1 X67.969 Y121.827 E28.59653
G1 X67.933 Y121.419 E28.64013
G1 X67.905 Y121.017 E28.68302
G1 X67.835 Y119.732 E28.81998
G1 X67.824 Y119.49 E28.84577
G1 X67.792 Y118.516 E28.94949
G1 X67.782 Y118.045 E28.99963
G1 X67.78 Y117.623 E29.04454
G1 X67.797 Y116.404 E29.1743
G1 X67.802 Y116.176 E29.19857
G1 X67.835 Y115.173 E29.30538
G1 X67.86 Y114.649 E29.36121
G1 X67.884 Y114.28 E29.40057
G1 X67.986 Y113.02 E29.53511
G1 X68.009 Y112.773 E29.56152
G1 X68.116 Y111.729 E29.67321
G1 X68.169 Y111.279 E29.72144
G1 X68.22 Y110.902 E29.76193
G1 X68.405 Y109.669 E29.89463
G1 X68.443 Y109.431 E29.92028
G1 X68.606 Y108.484 E30.02256
G1 X68.7 Y107.974 E30.07775
G1 X68.783 Y107.564 E30.12227
G1 X69.044 Y106.381 E30.25121
G1 X69.096 Y106.156 E30.27579
G1 X69.333 Y105.174 E30.38331
G1 X69.454 Y104.701 E30.43527
G1 X69.562 Y104.31 E30.47844
G1 X69.905 Y103.136 E30.60862
G1 X69.972 Y102.913 E30.6334
G1 X70.3 Y101.87 E30.74977
G1 X70.419 Y101.51 E30.79013
G1 X70.547 Y101.143 E30.83149
G1 X70.985 Y99.949 E30.96685
G1 X71.4 Y98.879 E31.089
G1 X71.605 Y98.371 E31.14731
G1 X71.763 Y97.999 E31.19032
G1 X72.276 Y96.849 E31.32435
G1 X72.372 Y96.638 E31.34902
G1 X72.839 Y95.647 E31.46562
G1 X72.991 Y95.335 E31.50256
G1 X73.173 Y94.977 E31.5453
G1 X73.777 Y93.836 E31.6827
G1 X73.891 Y93.626 E31.70814
G1 X74.404 Y92.704 E31.82043
G1 X74.586 Y92.387 E31.85934
G1 X74.788 Y92.048 E31.90134
G1 X75.481 Y90.928 E32.04152
G1 X75.61 Y90.725 E32.06712
G1 X76.173 Y89.856 E32.17732
G1 X76.386 Y89.537 E32.21814
G1 X76.613 Y89.21 E32.26051
G1 X77.37 Y88.154 E32.3988
G1 X77.51 Y87.962 E32.42409
G1 X78.089 Y87.19 E32.5268
G1 X78.403 Y86.783 E32.58151
G1 X78.642 Y86.483 E32.62233
G1 X79.418 Y85.541 E32.75223
G1 X79.572 Y85.358 E32.77769
G1 X80.115 Y84.725 E32.86645
G1 X80.536 Y84.248 E32.93416
G1 X80.794 Y83.966 E32.97484
G1 X81.711 Y82.995 E33.11699
G1 X81.882 Y82.817 E33.14326
G1 X82.573 Y82.117 E33.24795
G0 F6000 X83.005 Y82.817
G1 F1200 X83.503 Y82.325 E33.32246
G1 X83.752 Y82.087 E33.35912
G1 X84.791 Y81.128 E33.50961
G1 X85.418 Y80.57 E33.59894
G1 X85.88 Y80.171 E33.66391
G1 X86.149 Y79.947 E33.70117
G1 X87.326 Y78.998 E33.86209
G1 X88.115 Y78.389 E33.96817
G1 X88.437 Y78.146 E34.0111
G1 X88.764 Y77.909 E34.05408
G1 X90 Y77.046 E34.21453
G1 X90.767 Y76.532 E34.3128
G1 X91.203 Y76.247 E34.36824
G1 X91.543 Y76.034 E34.41094
G1 X92.57 Y75.414 E34.53862
G1 X92.756 Y75.304 E34.56162
G1 X93.654 Y74.786 E34.67196
G1 X94.019 Y74.582 E34.71646
G1 X94.342 Y74.408 E34.75551
G1 X95.486 Y73.817 E34.89255
G1 X95.697 Y73.711 E34.91769
G1 X96.592 Y73.273 E35.02374
G1 X96.965 Y73.096 E35.06768
G1 X97.324 Y72.934 E35.1096
G1 X98.495 Y72.428 E35.24537
G1 X98.7 Y72.342 E35.26903
G1 X99.643 Y71.958 E35.3774
G1 X100.063 Y71.793 E35.42543
G1 X100.412 Y71.662 E35.4651
G1 X101.604 Y71.239 E35.59972
G1 X101.812 Y71.167 E35.62315
G1 X102.738 Y70.86 E35.72698
G1 X103.132 Y70.735 E35.77097
G1 X103.501 Y70.625 E35.81195
G1 X104.741 Y70.278 E35.949
G1 X104.962 Y70.219 E35.97335
G1 X105.954 Y69.964 E36.08236
G1 X106.405 Y69.854 E36.13177
G1 X106.771 Y69.771 E36.17171
G1 X107.926 Y69.53 E36.29729
G1 X108.144 Y69.487 E36.32094
G1 X109.164 Y69.296 E36.43139
G1 X109.534 Y69.231 E36.47137
G1 X109.936 Y69.168 E36.51468
G1 X111.207 Y68.992 E36.65124
G1 X111.427 Y68.964 E36.67485
G1 X112.463 Y68.842 E36.78587
G1 X112.858 Y68.8 E36.82815
G1 X113.258 Y68.764 E36.8709
G1 X114.54 Y68.674 E37.00768
G1 X114.756 Y68.661 E37.03071
G1 X115.71 Y68.614 E37.13237
G1 X116.162 Y68.597 E37.18051
G1 X116.546 Y68.589 E37.22139
G1 X117.754 Y68.585 E37.34996
G1 X117.982 Y68.587 E37.37423
G1 X118.984 Y68.604 E37.48089
G1 X119.414 Y68.616 E37.52667
G1 X119.823 Y68.635 E37.57025
G1 X121.095 Y68.717 E37.70591
G1 X122.145 Y68.804 E37.81805
G1 X122.306 Y68.818 E37.83525
